X:136
T:Johnny Wilmot's fiddle
R:Reel
O:Cape Breton
S:SF Scottish Fiddlers Handout
Z:Transcription, chords:Mike Long
M:C|
L:1/8
K:D
"Em"BE ~E2 EDB,E|"G"DB,A,B, DEFG|"D"AD ~D2 FEDF|"A"ABdA BdAF|\
"Em"BE ~E2 EDB,E|"G"DB,A,B, DEFG|
"D"AD ~D2 FEDF|"A"ABdF E4:|\
"Em"Beef gfeg|"D"fedf "Em"edBA|"D"(3(Bcd) AG FDDF|"D"ABdA "A"BdAF|
"Em"Beef gfeg|"D"fedf "Em"edBA|"D"(3(Bcd) AG FDDF|"Bm"ABdF "Em"E4||\
"Em"Beef gfeg|"D"fedf "Em"edBA|
"D"(3(Bcd) AG FDDF|"D"ABdA "Bm"BdAF|\
"Em"BE ~E2 EDB,D|"G"DB,A,B, DEFG|"D"AD ~D2 FEDF|"A"ABdF E4|]
